X:1
T:Noord, 87.87 D
T:Noord, 87.87 D
T:Joseph Lincoln Hall, 1900
T:Public Domain Courtesy of the Cyber Hymnal™
C:Joseph Lincoln Hall, 1900
Z:Public Domain
Z:Courtesy of the Cyber Hymnal™
%%score ( 1 2 ) ( 3 4 )
L:1/8
Q:1/4=110
M:4/4
K:Bb
V:1 treble 
V:2 treble 
V:3 bass 
V:4 bass 
V:1
 [DF]3 [DF] [^CG]2 [DF]2 | [FB]3 [FA] [FA]2 [EG]2 | [EB]2 [EG]2 [DF]2 [FB]2 | [EA]2 [Ec]2 [DB]4 | %4
 [FB]3 [FB] [^FB]2 [FA]2 | [Fd]3 [^Fd] [Gd]2 [GB]2 | [=EA]2 [EG]2 [E^F]2 [EG]2 | [=Ed]2 [Ec]2 F4 | %8
 [Fe]3 [Fe] [Fe]2 [Fe]2 | [Fd]3 [^Fd] [Gd]2 [GB]2 | G3 A B2 A2 | [GB]2 [Gc]2 [^Fd]4 | %12
 [Fd]3 [Fd] [Fe]2 [Fd]2 | [=Ed]3 [Ec] [_DB]2 [DG]2 | [DF]3 [Fd] [Bf]2 [Ae]2 | [Bd]2 [Ac]2 [FB]4 |] %16
V:2
 x8 | x8 | x8 | x8 | x8 | x8 | x8 | x4 F4 | x8 | x8 | G3 A B2 A2 | x8 | x8 | x8 | x8 | x8 |] %16
V:3
 [B,,F,]3 [B,,F,] [B,,=E,]2 [B,,F,]2 | [D,B,]3 [D,B,] [E,B,]2 [E,B,]2 | %2
 [E,G,]2 [E,B,]2 [F,B,]2 [F,D]2 | [F,C]2 [F,A,]2 [B,,B,]4 | [B,D]3 [B,D] [CD]2 [CD]2 | %5
 [B,D]3 [A,C] [G,B,]2 [G,B,]2 | [C,B,]2 [C,B,]2 [C,B,]2 [C,B,]2 | [C,G,]2 [C,B,]2 [F,A,]4 | %8
 [F,A,]3 [G,B,] [A,C]2 [F,A,]2 | [B,D]3 [A,C] [G,B,]2 [G,D]2 | G,3 A, B,2 A,2 | %11
 [E,B,]2 [E,G,]2 [D,A,]4 | [G,=B,]3 [G,B,] [G,B,]2 [G,B,]2 | [C,B,]3 [C,B,] [=E,G,]2 [E,B,]2 | %14
 [F,B,]3 [F,B,] [F,D]2 [F,C]2 | [F,F]2 [F,E]2 [B,,B,D]4 |] %16
V:4
 x8 | x8 | x8 | x8 | x8 | x8 | x8 | x8 | x8 | x8 | G,3 A, B,2 A,2 | x8 | x8 | x8 | x8 | x8 |] %16

